!!!!SEGMENT: pl-kk--kk-i-3--003_anonim--veni-sancte-spiritus.krn
!!!cenid: 15xx:568
!!!COM: Anonim
!!!COM-rismid: pe30004985
!!!CDT:
!!!CNT:
!!!OTL: Veni sancte spiritus
!!!PDT:
!!!AGN:
!!!SMS-siglum: PL-Kk
!!!SMS-shelfmark: Kk.I.3
!!!SMS-shelfwork: 003 W
!!!SMS-variant:
!!!SMS-altvar:
!!!NIFC-rismid: 1001145496
!!!URL-scan: http://repozytorium.nifc.pl/skany/pl-kk-nut--i-3
!!!ONB-nifc: UWAGA: Discantus (s. 2r-v, skan 0004-0005), Tenor (s. 2r, skan 0174), Bassus (s. 2r-v, skan 0305-0306)
**kern	**text	**kern	**text	**kern	**text
*part3	*part3	*part2	*part2	*part1	*part1
*staff3	*staff3	*staff2	*staff2	*staff1	*staff1
*I"Bassus	*	*I"Tenor	*	*I"Discantus	*
*I'B	*	*I'T	*	*I'A	*
*Ibass	*	*Itenor	*	*Ialto	*
*ICvox	*	*ICvox	*	*ICvox	*
*clefF4	*	*clefC4	*	*clefC2	*
*k[]	*	*k[]	*	*k[]	*
*C:	*	*C:	*	*C:	*
*M2/1	*	*M2/1	*	*M2/1	*
*met(C|)	*	*met(C|)	*	*met(C|)	*
=1-	=1-	=1-	=1-	=1-	=1-
1G	Ve-	1G	Ve-	1d	Ve-
1C	-ni	1E	-ni	1e	-ni
=2-	=2-	=2-	=2-	=2-	=2-
1D	san-	1F	San-	1d	san-
1GG	-cte	1D	-cte	2d/	-cte
.	.	.	.	2g/	ſpi-
=3-	=3-	=3-	=3-	=3-	=3-
*	*	*lig	*	*	*
2.D/	Spi-	1F	Spi-	2f/	.
.	.	.	.	4e/	.
4E/	.	.	.	4d/	.
2F/	.	1A	.	2c/	.
2D/	.	.	.	1d/	.
*	*	*Xlig	*	*	*
=4-	=4-	=4-	=4-	=4-	=4-
1E	.	1G	.	.	.
.	.	.	.	2c/	.
*	*	*lig	*	*	*
1D	-ri-	1F	-ri-	1d	-ri-
=5-	=5-	=5-	=5-	=5-	=5-
1C	-tus	1G	.	0e	-tus
*	*	*Xlig	*	*	*
!LO:SIC:v:t=custos C	!	!	!	!	!
2r	.	1G	-tus	.	.
!LO:LB:g=original	!	!	!	!	!
2C/	re-	.	.	.	.
=6-	=6-	=6-	=6-	=6-	=6-
!	!	!	!	!LO:SIC:v:t=custos g	!
2C/	-ple	1G	re-	2r	.
*	*	*	*	*2\right	*
!	!	!	!	!LO:LB:g=original	!
1C	tu-	.	.	2g\	re-
.	.	1G	-ple	2g\	-ple
4BB/	.	.	.	1g\	tu-
4AA/	.	.	.	.	.
=7-	=7-	=7-	=7-	=7-	=7-
!	!	!LO:SIC:v:t=custos A	!	!	!
2GG/	.	1G	tu-	.	.
2GG/	-o-	.	.	4f/	.
.	.	.	.	4e/	.
!	!	!LO:LB:g=original	!	!	!
1D	-ru(m)	1A	-o-	2d/	.
.	.	.	.	2d/	-o-
=8-	=8-	=8-	=8-	=8-	=8-
1E	cor-	1G	-ru(m)	1g	-ru(m)
1D	-da	1A	cor-	2r	.
.	.	.	.	2d/	cor-
=9-	=9-	=9-	=9-	=9-	=9-
2C/	fi-	1c	-da	2e/	-da
*2\right	*	*	*	*	*
2F\	-de-	.	.	2f/	.
1E	-li-	1G	fi-	2g\	fi-
.	.	.	.	1g\	-de-
=10-	=10-	=10-	=10-	=10-	=10-
1D	-u(m)	1A	-de-	.	.
.	.	.	.	2f\	-li-
*	*	*lig	*	*	*
2r	.	1G	-li-	1g	-um
2E/	et	.	.	.	.
=11-	=11-	=11-	=11-	=11-	=11-
!	!	!	!	!LO:SIC:v:t=custos d	!
1A	tu-	1F	.	2r	.
!	!	!	!	!LO:LB:g=original	!
.	.	.	.	2d/	et
*	*	*Xlig	*	*	*
!LO:SIC:v:t=custos A	!	!	!	!	!
2D/	-i	1F	-um	1a	tu-
!LO:LB:g=original	!	!	!	!	!
1A\	a-	.	.	.	.
=12-	=12-	=12-	=12-	=12-	=12-
.	.	1F	et	2f/	-i
4G\	.	.	.	2a\	a-
4F\	.	.	.	.	.
2E/	.	1G	tu-	2.g\	-mo-
2E/	-mo-	.	.	.	.
.	.	.	.	4f/	.
=13-	=13-	=13-	=13-	=13-	=13-
1AA	-ris	1A	-i	2e/	.
.	.	.	.	1a	.
2r	.	1c	a-	.	.
2.AA/	a-	.	.	4g\	.
.	.	.	.	4f/	.
=14-	=14-	=14-	=14-	=14-	=14-
*	*	*lig	*	*	*
.	.	1c	-mo-	1e	.
4BB/	.	.	.	.	.
4C/	.	.	.	.	.
4D/	.	.	.	.	.
4E/	.	1B	.	2d/	.
4F/	.	.	.	.	.
2G\	.	.	.	1g\	.
*	*	*Xlig	*	*	*
=15-	=15-	=15-	=15-	=15-	=15-
*	*	*lig	*	*	*
1D	.	1A	.	.	.
.	.	.	.	2f/	-ris
!	!	!LO:SIC:v:t=custos A	!	!	!
1E	.	1G	-ris	1g	in
*	*	*Xlig	*	*	*
=16-	=16-	=16-	=16-	=16-	=16-
*	*	*lig	*	*	*
!	!	!	!	!LO:SIC:v:t=custos e	!
1D	-mo-	1A	in	1f	.
!	!	!	!	!LO:LB:g=original	!
1C	-ris	1c	.	2.e/	e-
.	.	.	.	4d/	.
*	*	*Xlig	*	*	*
=17-	=17-	=17-	=17-	=17-	=17-
*	*	*lig	*	*	*
!LO:SIC:v:t=custos C	!	!	!	!	!
2r	.	1A	e-	4c/	.
.	.	.	.	4d/	.
!LO:LB:g=original	!	!	!	!	!
1C	in	.	.	1e	.
.	.	1G	.	.	.
2D/	e-	.	.	1d/	.
*	*	*Xlig	*	*	*
=18-	=18-	=18-	=18-	=18-	=18-
*	*	*lig	*	*	*
1E	.	1G	-is	.	.
.	.	.	.	2c/	.
2.D/	-is	1A	.	1d	-is
4E/	.	.	.	.	.
*	*	*Xlig	*	*	*
=19-	=19-	=19-	=19-	=19-	=19-
*	*	*lig	*	*	*
2F\	.	1A	i-	1r	.
2D/	.	.	.	.	.
*	*	*	*	*lig	*
2E/	.	1G	.	1e	i-
2C/	.	.	.	.	.
*	*	*Xlig	*	*	*
=20-	=20-	=20-	=20-	=20-	=20-
*	*	*lig	*	*	*
2D/	i-	1F	gnem	1d	.
2BB-X/	.	.	.	.	.
*	*	*	*	*Xlig	*
2C/	-gnem	1E	.	2.c/	.
2AA/	ac-	.	.	.	.
.	.	.	.	4B/	.
*	*	*Xlig	*	*	*
=21-	=21-	=21-	=21-	=21-	=21-
1D	-cen-	1F	ac-	2A/	-gnem
.	.	.	.	2d/	ac-
*lig	*	*lig	*	*	*
1GG	.	1G	-cen-	1d	-cen-
=22-	=22-	=22-	=22-	=22-	=22-
1D	.	1F	.	0d	-de
*Xlig	*	*Xlig	*	*	*
!LO:SIC:v:t=custos C	!	!	!	!	!
1GG	-de	1G	.	.	.
!LO:LB:g=original	!	!	!	!	!
=23-	=23-	=23-	=23-	=23-	=23-
1C	qui	1G,<	-de	2r	.
!	!	!	!	!LO:SIC:v:t=custos f	!
.	.	.	.	2e/	qui
!	!	!	!	!LO:LB:g=original	!
1D	per	1F	qui	2f/	per
.	.	.	.	2a\	di-
=24-	=24-	=24-	=24-	=24-	=24-
2E\	di-	1G	p(er)	2g\	-ver-
2G\	-ver-	.	.	2d/	-si-
2D/	-si-	1A	di-	1f	-ta-
2F\	-ta-	.	.	.	.
=25-	=25-	=25-	=25-	=25-	=25-
1C	-tu(m)	1c	-ver-	1e	-tu(m)
2r	.	1d	-ſi-	2r	.
2G\	di-	.	.	2g\	di-
=26-	=26-	=26-	=26-	=26-	=26-
*	*	*lig	*	*	*
2A\	-ver-	1c	-ta-	2e/	-ver-
2F\	-si-	.	.	2f/	-si-
!	!	!LO:SIC:v:t=custos A	!	!	!
1G	-ta-	1B	.	1d	-ta-
*	*	*Xlig	*	*	*
!	!	!LO:LB:g=original	!	!	!
=27-	=27-	=27-	=27-	=27-	=27-
1D	-tum	1A	-tem	2d/	-tu(m)
.	.	.	.	2f/	.
1C	lin-	1c	lin-	2e/	.
.	.	.	.	1g\	lin-
=28-	=28-	=28-	=28-	=28-	=28-
1D	-gua-	1A	-gua-	.	.
.	.	.	.	2f/	.
!LO:SIC:v:t=custos G	!	!	!	!	!
2GG/	-ru(m)	1G	-r(um)	1g	-gua-
!LO:PB:g=original	!	!	!	!	!
1G\	cun-	.	.	.	.
=29-	=29-	=29-	=29-	=29-	=29-
!	!	!	!	!LO:SIC:v:t=custos f	!
.	.	1A	cu(n)-	2c/	-ru(m)
!	!	!	!	!LO:PB:g=original	!
2F\	.	.	.	1f	cun-
1G	-cta-	1G	-cta-	.	.
.	.	.	.	2e/	-cta-
=30-	=30-	=30-	=30-	=30-	=30-
2D/	-ru(m)	1F,<	-r(um)	2f/	-rum
1A	gen-	.	.	2.f/	.
.	.	1F	gen-	.	.
.	.	.	.	4e/	.
4G\	.	.	.	1d/	gen-
4F\	.	.	.	.	.
=31-	=31-	=31-	=31-	=31-	=31-
1E	.	1G,<	-tes	.	.
.	.	.	.	2c/	.
2D/	-tes	1A,<	in	2d/	-tes
2F/	in	.	.	2a\	in
=32-	=32-	=32-	=32-	=32-	=32-
2E/	u-	1c	u-	2g/	u-
2C/	-ni-	.	.	2e/	-ni-
*lig	*	*	*	*	*
1G	-ta-	1d	-ni-	2d/	.
.	.	.	.	1g\	-ta-
=33-	=33-	=33-	=33-	=33-	=33-
*	*	*lig	*	*	*
1A	.	1c	-ta-	.	.
.	.	.	.	2f/	-te
*Xlig	*	*	*	*	*
1G	-te	1B	.	2g/	.
!	!	!	!	!LO:SIC:v:t=custos d	!
.	.	.	.	2d/	fi-
*	*	*Xlig	*	*	*
!	!	!	!	!LO:LB:g=original	!
=34-	=34-	=34-	=34-	=34-	=34-
*	*	*	*	*lig	*
2F/	fi-	1A	-te	1d	-de-
!LO:SIC:v:t=custos C	!	!	!	!	!
2D/	.	.	.	.	.
!LO:LB:g=original	!	!LO:SIC:v:t=custos A	!	!	!
1C	-de-	1c	fi-	1e	.
*	*	*	*	*Xlig	*
!	!	!LO:LB:g=original	!	!	!
=35-	=35-	=35-	=35-	=35-	=35-
*	*	*lig	*	*	*
1D	.	1A	-de-	1d	-i
1GG	-i	1G	.	2r	.
.	.	.	.	2g\	fi-
*	*	*Xlig	*	*	*
=36-	=36-	=36-	=36-	=36-	=36-
*	*	*lig	*	*	*
2r	.	1G	-i	2e/	.
2G\	fi-	.	.	2d/	-de-
2F\	.	1A	.	1f	.
2D/	-de-	.	.	.	.
*	*	*Xlig	*	*	*
=37-	=37-	=37-	=37-	=37-	=37-
*	*	*lig	*	*	*
1F	.	1A	con-	1c	-i
1C	-i	1G	.	2r	.
.	.	.	.	2e/	con-
*	*	*Xlig	*	*	*
=38-	=38-	=38-	=38-	=38-	=38-
*lig	*	*lig	*	*	*
1D	con-	1F	gre-	2f/	-gre-
.	.	.	.	2d/	.
1C	.	1E	.	2e/	-ga-
.	.	.	.	2g\	.
*Xlig	*	*Xlig	*	*	*
=39-	=39-	=39-	=39-	=39-	=39-
*	*	*lig	*	*	*
1D	-gre-	1F	-ga-	1f	.
*lig	*	*	*	*	*
!	!	!	!	!LO:SIC:v:t=custos f	!
1E	.	1G	.	1e	.
*	*	*Xlig	*	*	*
!	!	!	!	!LO:LB:g=original	!
=40-	=40-	=40-	=40-	=40-	=40-
1D	.	1F	.	1f	.
*Xlig	*	*	*	*	*
0GG	-sti	1G	-ſti	1d	-sti
=41-	=41-	=41-	=41-	=41-	=41-
.	.	1G	al-	2r	.
.	.	.	.	2g\	al-
*	*	*lig	*	*	*
2r	.	1G	-le-	1e	-le-
2C/	al-	.	.	.	.
=42-	=42-	=42-	=42-	=42-	=42-
1AA	-le-	1A	.	1a	-lu-
*	*	*Xlig	*	*	*
*	*	*lig	*	*	*
!LO:SIC:v:t=custos GG	!	!	!	!	!
1D	-lu-	1A	-lu-	1d	-ia
!LO:LB:g=original	!	!	!	!	!
=43-	=43-	=43-	=43-	=43-	=43-
1GG	-ia	1G	.	2r	.
.	.	.	.	2B/	al-
*	*	*Xlig	*	*	*
1r	.	1F	-ia	2c/	-le-
.	.	.	.	1d/	.
=44-	=44-	=44-	=44-	=44-	=44-
*	*	*lig	*	*	*
2r	.	1E	al-	.	.
2AA/	al-	.	.	2c/	.
2BBny/	-le-	1D	.	1d	.
4GG/	-lu-	.	.	.	.
4AA/	.	.	.	.	.
*	*	*Xlig	*	*	*
=45-	=45-	=45-	=45-	=45-	=45-
*	*	*lig	*	*	*
4BB/	.	1D	-le-	2.d/	.
4C/	.	.	.	.	.
1D	.	.	.	.	.
.	.	.	.	4e/	.
.	.	1A	.	2f/	.
!	!	!	!	!LO:SIC:v:t=custos f	!
2C/	.	.	.	1g\	-lu-
*	*	*Xlig	*	*	*
=46-	=46-	=46-	=46-	=46-	=46-
1D	.	1A	-lu-	.	.
!	!	!	!	!LO:LB:g=original	!
!	!	!	!	!LO:N:vis=1:JI	!
.	.	.	.	2f\	.
!	!	!LO:SIC:v:t=custos G	!	!	!
2GG/	.	[1Gl;	-ia	2g\	.
1C/	.	.	.	1e\	.
=47-	=47-	=47-	=47-	=47-	=47-
.	.	0G_	.	.	.
2BB/	.	.	.	2d/	.
2C/	.	.	.	2c/	.
2GG/	.	.	.	2B/	.
=48-	=48-	=48-	=48-	=48-	=48-
1C	.	0G]	.	1e	.
1GGl;	-ia	.	.	1dl;	-ia
==	==	==	==	==	==
*-	*-	*-	*-	*-	*-
!!!system-decoration: [(s1,s2,s3)]
!!!RDF**kern: < = below
!!!RDF**kern: l = terminal long
!!!AIN: 1 alto 1 bass 1 tenor
!!!ENC: Andrzej Gręziak
!!!END: 2021-12-28
!!!ENC: Andrzej Kubiczek
!!!END: 2021-12-31
